X: 113
T:Grandfather's Pet
% Nottingham Music Database
S:Trad, arr Phil Rowe
M:6/8
K:D
A|"D"d2A ABA|d2A ABA|"D"d2e "Bm"f2d|"Em"e2d "A7"B2c|
"D"d2A ABA|"D"dBA ABA|d2f a2g|"A7"fge "D"d2::
e|"D"f2f fed|"A7"e2f g2e|"D"f2f fed|"A7"ecA A2e|
"D"fgf fed|"A7"e2f g2g|"D"agf "A7"gec|"D"d3 -d2:|<end>
<start>
